X: 63
T:Streams of Kilnaspig (#173), The
M:6/8
L:1/8
S:Pat. Dunne manuscript
K:G
B/2c/2|dcB AFA|GBd gdB|cBc AFA|GBd c2 A|
dcB AFA|GBd gdB|cBc AFA|BGG G2:|
|:c|def gfg|eag fed|cBc AFA|GBd gec|
def gfg|eag fed|cBc AFA|BGG G2:||

